fa7/svgs/sharp-light/seal-exclamation.svg

<svg xmlns="http://www.w3.org/2000/svg" viewBox="0 0 512 512"><!--! Font Awesome Pro 7.0.0 by @fontawesome - https://fontawesome.com License - https://fontawesome.com/license (Commercial License) Copyright 2025 Fonticons, Inc. --><path fill="currentColor" d="M278.6 22.6L320 64 448 64 448 192c30.7 30.7 52 52 64 64-12 12-33.3 33.3-64 64l0 128-128 0c-30.7 30.7-52 52-64 64-12-12-33.3-33.3-64-64l-128 0 0-128c-30.7-30.7-52-52-64-64 12-12 33.3-33.3 64-64l0-128 128 0c30.7-30.7 52-52 64-64l22.6 22.6zM320 96l-13.3 0c-.9-.9-17.8-17.8-50.7-50.7-32.9 32.9-49.8 49.8-50.7 50.7L96 96 96 205.3c-.9 .9-17.8 17.8-50.7 50.7 32.9 32.9 49.8 49.8 50.7 50.7l0 109.3 109.3 0c.9 .9 17.8 17.8 50.7 50.7 32.9-32.9 49.8-49.8 50.7-50.7l109.3 0 0-109.3 50.7-50.7c-32.9-32.9-49.8-49.8-50.7-50.7l0-109.3-96 0zm-48 64l0 144-32 0 0-144 32 0zM240 336l32 0 0 32-32 0 0-32z"/></svg>

<svg xmlns="http://www.w3.org/2000/svg" viewBox="0 0 512 512"><!--! Font Awesome Pro 7.0.1 by @fontawesome - https://fontawesome.com License - https://fontawesome.com/license (Commercial License) Copyright 2025 Fonticons, Inc. --><path fill="currentColor" d="M320 64l128 0 0 128 64 64-64 64 0 128-128 0-64 64-64-64-128 0 0-128-64-64 64-64 0-128 128 0 64-64 64 64zM205.2 96L96 96 96 205.2 45.2 256 96 306.7 96 416 205.2 416 256 466.7 306.7 416 416 416 416 306.7 466.7 256 416 205.2 416 96 306.7 96 256 45.2 205.2 96zM276 380l-40 0 0-40 40 0 0 40zm-8.8-76l-22.4 0-12.8-176 48 0-12.8 176z"/></svg>
